X: 1635
T: The Smokey Chimney
M:C|
L:1/8
B:O'Neill's 1635
N:"collected by Cronin"
Z:Transcribed by Nick Terhorst, nickte@microsoft.com
N: Fixed line wrapping [jc]
N: Fixed staff breaks [jc]
K:D
(3ABc|dcde fdAF|GFGA BGEd|efge cdec|defd A2(3ABc|
|dcde fdAF|GFGA BGEd|efge cABc|dfec d2:|
|:de|fefg afdf|gfga bgeg|fgaf defd|cedB A2 de|
|fefg afdf|gfga bgeg|afge fdec|dfec d2:|


